Sources/FrostedUI/Resources/Icons.xcassets/documentPlus16.imageset/document-plus-16.svg

<svg width="16" height="16" viewBox="0 0 16 16" fill="none" xmlns="http://www.w3.org/2000/svg" data-fui-icon="true">
  <path
    d="M12.667 9.91699C13.0811 9.91716 13.417 10.2529 13.417 10.667V11.917H14.667C15.0811 11.9172 15.417 12.2529 15.417 12.667C15.4169 13.081 15.081 13.4168 14.667 13.417H13.417V14.667C13.4169 15.081 13.081 15.4168 12.667 15.417C12.2529 15.417 11.9171 15.0811 11.917 14.667V13.417H10.667C10.2529 13.417 9.91712 13.0811 9.91699 12.667C9.91699 12.2528 10.2528 11.917 10.667 11.917H11.917V10.667C11.917 10.2528 12.2528 9.91699 12.667 9.91699ZM12.1875 1.03125C13.7072 1.03125 14.9375 2.26544 14.9375 3.7832V9.01855C14.9373 9.43262 14.6016 9.76855 14.1875 9.76855C13.7734 9.76855 13.4377 9.43262 13.4375 9.01855V3.7832C13.4375 3.09189 12.8768 2.53125 12.1875 2.53125H3.8125C3.12214 2.53125 2.5625 3.09089 2.5625 3.78125V12.1875C2.5625 12.8779 3.12214 13.4375 3.8125 13.4375H9.03125C9.44546 13.4375 9.78125 13.7733 9.78125 14.1875C9.78125 14.6017 9.44546 14.9375 9.03125 14.9375H3.8125C2.29372 14.9375 1.0625 13.7063 1.0625 12.1875V3.78125C1.0625 2.26247 2.29372 1.03125 3.8125 1.03125H12.1875ZM8.04492 8.58301C8.45872 8.58335 8.79472 8.91918 8.79492 9.33301C8.79492 9.74701 8.45884 10.0827 8.04492 10.083H4.77637C4.36215 10.083 4.02637 9.74722 4.02637 9.33301C4.02657 8.91896 4.36228 8.58301 4.77637 8.58301H8.04492ZM11.3125 5.91699C11.7266 5.91716 12.0625 6.25288 12.0625 6.66699C12.0623 7.08094 11.7265 7.41683 11.3125 7.41699H4.77637C4.36228 7.41699 4.02657 7.08104 4.02637 6.66699C4.02637 6.25278 4.36215 5.91699 4.77637 5.91699H11.3125Z"
    fill="currentColor"
  />
</svg>

<svg xmlns="http://www.w3.org/2000/svg" width="16" height="16" fill="none" data-fui-icon="true" viewBox="0 0 16 16"><path fill="currentColor" d="M12.667 9.917a.75.75 0 0 1 .75.75v1.25h1.25a.75.75 0 0 1 0 1.5h-1.25v1.25a.75.75 0 0 1-1.5 0v-1.25h-1.25a.75.75 0 0 1 0-1.5h1.25v-1.25a.75.75 0 0 1 .75-.75m-.48-8.886c1.52 0 2.75 1.234 2.75 2.752V9.02a.75.75 0 0 1-1.5 0V3.783c0-.691-.56-1.252-1.25-1.252H3.813c-.69 0-1.25.56-1.25 1.25v8.407c0 .69.56 1.25 1.25 1.25H9.03a.75.75 0 0 1 0 1.5H3.812a2.75 2.75 0 0 1-2.75-2.75V3.78a2.75 2.75 0 0 1 2.75-2.75zM8.046 8.583a.75.75 0 0 1 0 1.5H4.776a.75.75 0 1 1 0-1.5zm3.268-2.666a.75.75 0 0 1 0 1.5H4.776a.75.75 0 0 1 0-1.5z"/></svg>
